X: 1
T: Fair Haired Mary
M: 4/4
L: 1/8
R: reel
K: Gdor
|: Gdd^c d2 =cB | AFcF dFcF | Gdd^c d2 de | fdcA dcBA |
Gdd^c d2 =cB | AFcF dFcF | Gdd^c d2 de | fdcA G2 G2 :|
|: g2 dg g2 ag | fdde f2 ef | g2 ^fg g2 ag | fdcA gBcA |
gdd^f g2 ag | fdda f2^ fg | abag ^fgag | fdcA G4 :|
